svg/file.svg

<svg xmlns="http://www.w3.org/2000/svg" viewBox="0 0 48 64" enable-background="new 0 0 48 64"><style type="text/css">.st0{fill:#343434;}</style><title>file</title><desc>Created with Sketch.</desc><path class="st0" d="M32 0h-31c-.6 0-1 .5-1 1v62c0 .6.4 1 1 1h46c.6 0 1-.5 1-1v-47l-16-16zm12 60h-40v-56h26.3l13.7 13.7v42.3z"/></svg>

<svg xmlns="http://www.w3.org/2000/svg" viewBox="0 0 48 64"><path d="M32 0H1C.4 0 0 .5 0 1v62c0 .6.4 1 1 1h46c.6 0 1-.5 1-1V16L32 0zm12 60H4V4h26.3L44 17.7V60z" fill="#343434"/></svg>
